src/modules/75-ce/components/COHelpSidebar/images/spotOD.svg

<svg fill="none" height="271" viewBox="0 0 316 271" width="316" xmlns="http://www.w3.org/2000/svg"><path d="m50.983 116.114c1.4772 0 2.4715-1.123 2.4715-2.813 0-1.704-.9943-2.827-2.4715-2.827-1.4773 0-2.4716 1.123-2.4716 2.827 0 1.69.9943 2.813 2.4716 2.813zm0-.753c-1.1222 0-1.6336-.966-1.6336-2.06s.5114-2.074 1.6336-2.074c1.1221 0 1.6335.98 1.6335 2.074s-.5114 2.06-1.6335 2.06zm4.5889-2.642c0-.952.5895-1.492 1.3921-1.492.7777 0 1.25.508 1.25 1.364v3.409h.838v-3.466c0-1.392-.7422-2.06-1.8466-2.06-.8238 0-1.3352.37-1.5909.924h-.071v-.853h-.8097v5.455h.8381zm8.1366-.228h-3.1819v.782h3.1819zm3.5342 3.623c1.0512 0 1.4063-.654 1.5909-.952h.0995v.838h.8096v-7.273h-.838v2.685h-.0711c-.1846-.284-.5113-.938-1.5767-.938-1.3778 0-2.3295 1.094-2.3295 2.813 0 1.733.9517 2.827 2.3153 2.827zm.1137-.753c-1.0512 0-1.591-.923-1.591-2.088 0-1.151.5256-2.046 1.591-2.046 1.0227 0 1.5625.824 1.5625 2.046 0 1.236-.554 2.088-1.5625 2.088zm6.3245.753c1.108 0 1.9176-.554 2.1733-1.378l-.8096-.227c-.2131.568-.7067.852-1.3637.852-.9836 0-1.6619-.636-1.701-1.804h3.9596v-.355c0-2.032-1.2074-2.728-2.3438-2.728-1.4773 0-2.4574 1.165-2.4574 2.841s.9659 2.799 2.5426 2.799zm-1.701-3.282c.0569-.848.657-1.605 1.6158-1.605.9091 0 1.4915.682 1.4915 1.605zm5.2344 3.168h.8381v-3.409c0-.799.5824-1.364 1.2358-1.364.6356 0 1.0795.416 1.0795 1.037v3.736h.8523v-3.551c0-.703.4403-1.222 1.2074-1.222.5966 0 1.1079.316 1.1079 1.122v3.651h.8381v-3.651c0-1.282-.6889-1.875-1.6619-1.875-.7813 0-1.353.359-1.6336.924h-.0568c-.2699-.583-.7457-.924-1.463-.924-.7103 0-1.2358.341-1.4631.924h-.071v-.853h-.8097zm10.2965.128c.9517 0 1.4489-.512 1.6193-.867h.0427v.739h.838v-3.594c0-1.733-1.321-1.932-2.017-1.932-.8239 0-1.7614.285-2.1875 1.279l.7954.284c.1847-.398.6215-.824 1.4205-.824.7706 0 1.1506.408 1.1506 1.108v.028c0 .405-.412.37-1.4063.498-1.0121.131-2.1165.355-2.1165 1.605 0 1.065.8239 1.676 1.8608 1.676zm.1279-.753c-.6676 0-1.1506-.298-1.1506-.881 0-.639.5824-.838 1.2358-.923.3551-.043 1.3068-.142 1.4489-.312v.767c0 .681-.5398 1.349-1.5341 1.349zm4.7399-2.656c0-.952.5894-1.492 1.392-1.492.7777 0 1.25.508 1.25 1.364v3.409h.8381v-3.466c0-1.392-.7422-2.06-1.8466-2.06-.8239 0-1.3353.37-1.5909.924h-.0711v-.853h-.8096v5.455h.8381zm7.0712 3.395c1.0512 0 1.4062-.654 1.5912-.952h.099v.838h.81v-7.273h-.838v2.685h-.071c-.185-.284-.512-.938-1.577-.938-1.3779 0-2.3296 1.094-2.3296 2.813 0 1.733.9517 2.827 2.3154 2.827zm.1136-.753c-1.0511 0-1.5909-.923-1.5909-2.088 0-1.151.5255-2.046 1.5909-2.046 1.0226 0 1.5626.824 1.5626 2.046 0 1.236-.554 2.088-1.5626 2.088z" fill="#000"/><path d="m221.858 110.545h.852c-.039-1.097-1.051-1.917-2.457-1.917-1.392 0-2.486.81-2.486 2.031 0 .98.71 1.563 1.847 1.889l.895.256c.767.213 1.448.483 1.448 1.207 0 .796-.767 1.321-1.775 1.321-.867 0-1.634-.383-1.705-1.207h-.909c.085 1.193 1.051 2.003 2.614 2.003 1.676 0 2.628-.923 2.628-2.102 0-1.364-1.293-1.804-2.046-2.003l-.738-.199c-.54-.142-1.407-.426-1.407-1.208 0-.696.64-1.207 1.605-1.207.881 0 1.549.419 1.634 1.136zm2.286 7.5h.838v-2.883h.071c.185.298.54.952 1.591.952 1.364 0 2.315-1.094 2.315-2.827 0-1.719-.951-2.813-2.329-2.813-1.066 0-1.392.654-1.577.938h-.099v-.867h-.81zm.824-4.772c0-1.222.54-2.046 1.562-2.046 1.066 0 1.591.895 1.591 2.046 0 1.165-.54 2.088-1.591 2.088-1.008 0-1.562-.852-1.562-2.088zm7.486 2.841c1.477 0 2.471-1.123 2.471-2.813 0-1.704-.994-2.827-2.471-2.827-1.478 0-2.472 1.123-2.472 2.827 0 1.69.994 2.813 2.472 2.813zm0-.753c-1.123 0-1.634-.966-1.634-2.06s.511-2.074 1.634-2.074c1.122 0 1.633.98 1.633 2.074s-.511 2.06-1.633 2.06zm6.123-4.816h-1.165v-1.306h-.838v1.306h-.824v.711h.824v3.409c0 .951.767 1.406 1.477 1.406.313 0 .511-.057.625-.099l-.17-.753c-.071.014-.185.042-.37.042-.369 0-.724-.113-.724-.823v-3.182h1.165z" fill="#000"/><path d="m122 59h31v79h-31z" fill="#0278d5"/><path d="m161 112h31v26h-31z" fill="#00ade4"/><g fill="#0278d5"><rect height="11" rx="1" width="11" x="65" y="77"/><rect height="11" rx="1" width="11" x="79" y="83"/><rect height="11" rx="1" width="11" x="62" y="92"/></g><rect height="10" rx=".5" stroke="#00ade4" stroke-dasharray="2 1" width="10" x="217.5" y="77.5"/><rect height="10" rx=".5" stroke="#00ade4" stroke-dasharray="2 1" width="10" x="231.5" y="83.5"/><rect height="10" rx=".5" stroke="#00ade4" stroke-dasharray="2 1" width="10" x="214.5" y="92.5"/><path d="m137.807 149.181c-.224-1.616-1.467-2.553-3.079-2.553-1.9 0-3.331 1.385-3.331 3.736 0 2.347 1.413 3.735 3.331 3.735 1.729 0 2.876-1.118 3.079-2.507l-1.328-.007c-.167.853-.863 1.332-1.733 1.332-1.179 0-2.024-.884-2.024-2.553 0-1.641.838-2.554 2.027-2.554.884 0 1.577.501 1.73 1.371zm13.705 1.183c0-2.351-1.435-3.736-3.342-3.736-1.91 0-3.341 1.385-3.341 3.736 0 2.347 1.431 3.735 3.341 3.735 1.907 0 3.342-1.385 3.342-3.735zm-1.325 0c0 1.654-.831 2.553-2.017 2.553-1.182 0-2.017-.899-2.017-2.553 0-1.655.835-2.554 2.017-2.554 1.186 0 2.017.899 2.017 2.554zm12.523-1.637h1.268c-.025-1.229-1.073-2.099-2.621-2.099-1.527 0-2.674.859-2.671 2.145 0 1.044.743 1.644 1.939 1.953l.828.213c.784.199 1.303.444 1.306 1.008-.003.622-.593 1.037-1.452 1.037-.824 0-1.463-.369-1.516-1.132h-1.296c.053 1.445 1.129 2.258 2.823 2.258 1.743 0 2.755-.87 2.759-2.152-.004-1.261-1.044-1.836-2.138-2.095l-.682-.171c-.596-.142-1.243-.394-1.235-1.001.003-.547.493-.948 1.317-.948.785 0 1.303.366 1.371.984zm8.222-.895h2.248v6.168h1.307v-6.168h2.247v-1.105h-5.802z" fill="#6b6d85"/><path d="m122.923 55.1818h.978l.005-1.0572c1.98-.1431 3.116-1.2326 3.121-2.7791-.005-1.6388-1.358-2.3867-2.779-2.7237l-.305-.0785.018-2.636c.739.1293 1.215.5725 1.288 1.2372h1.648c-.027-1.468-1.181-2.539-2.926-2.7052l.004-1.0757h-.978l-.005 1.0757c-1.731.1754-2.978 1.2372-2.973 2.7652 0 1.3573.965 2.1375 2.521 2.5391l.415.1062-.018 2.793c-.827-.1293-1.422-.6002-1.482-1.4358h-1.685c.064 1.7312 1.255 2.7607 3.157 2.9176zm.992-2.539.019-2.5345c.84.2447 1.375.5678 1.38 1.2234-.005.6832-.554 1.1726-1.399 1.3111zm-.951-4.3488c-.637-.2031-1.219-.5401-1.209-1.1956.004-.5956.452-1.0572 1.228-1.1911zm5.497 5.706h6.482v-1.4311h-4.118v-.0646l1.63-1.6574c1.837-1.7634 2.345-2.6221 2.345-3.6885 0-1.5835-1.288-2.7422-3.19-2.7422-1.875 0-3.204 1.1633-3.204 2.9592h1.63c0-.9649.609-1.5696 1.551-1.5696.9 0 1.569.5493 1.569 1.4403 0 .7894-.48 1.3526-1.412 2.299l-3.283 3.2177zm7.701-1.7543h4.51v1.7543h1.634v-1.7543h1.21v-1.408h-1.21v-6.2922h-2.133l-4.011 6.3384zm4.528-1.408h-2.774v-.0739l2.7-4.2794h.074zm7.795 3.3423c2.281.0047 3.643-1.7958 3.643-4.898 0-3.0838-1.371-4.8658-3.643-4.8658-2.271 0-3.638 1.7773-3.642 4.8658 0 3.0976 1.362 4.898 3.642 4.898zm0-1.4449c-1.177 0-1.916-1.1818-1.911-3.4531.005-2.2529.739-3.4393 1.911-3.4393 1.177 0 1.911 1.1864 1.916 3.4393 0 2.2713-.734 3.4531-1.916 3.4531z" fill="#0278d5"/><path d="m221.747 129.727h1.268c-.025-1.229-1.073-2.099-2.621-2.099-1.527 0-2.674.859-2.671 2.145 0 1.044.743 1.644 1.939 1.953l.828.213c.785.199 1.303.444 1.307 1.008-.004.622-.593 1.037-1.453 1.037-.824 0-1.463-.369-1.516-1.132h-1.296c.053 1.445 1.129 2.258 2.823 2.258 1.743 0 2.756-.87 2.759-2.152-.003-1.261-1.044-1.836-2.138-2.095l-.682-.171c-.596-.142-1.242-.394-1.235-1.001.003-.547.493-.948 1.317-.948.785 0 1.303.366 1.371.984zm4.054 5.383c.856 0 1.368-.401 1.602-.859h.043v.749h1.235v-3.651c0-1.441-1.175-1.875-2.216-1.875-1.147 0-2.027.512-2.311 1.506l1.2.171c.128-.373.49-.693 1.119-.693.596 0 .923.305.923.842v.021c0 .369-.387.387-1.35.49-1.058.114-2.07.43-2.07 1.658 0 1.073.785 1.641 1.825 1.641zm.334-.945c-.536 0-.92-.245-.92-.717 0-.493.43-.699 1.005-.781.338-.046 1.013-.131 1.179-.266v.642c0 .608-.49 1.122-1.264 1.122zm8.516-4.62h-1.367l-1.257 4.052h-.057l-1.254-4.052h-1.371l1.943 5.455h1.42zm3.119 5.562c1.271 0 2.145-.622 2.372-1.57l-1.201-.135c-.174.462-.6.703-1.154.703-.831 0-1.381-.547-1.392-1.481h3.8v-.394c0-1.914-1.151-2.756-2.493-2.756-1.562 0-2.582 1.147-2.582 2.831 0 1.711 1.005 2.802 2.65 2.802zm-1.371-3.349c.039-.696.554-1.282 1.321-1.282.739 0 1.236.54 1.243 1.282zm7.616 3.242h1.367l3.09-6.147v-1.126h-4.954v1.101h3.59v.05zm8.135.138c1.754.004 2.802-1.381 2.802-3.767 0-2.372-1.055-3.743-2.802-3.743s-2.798 1.367-2.802 3.743c0 2.383 1.048 3.767 2.802 3.767zm0-1.111c-.906 0-1.474-.909-1.47-2.656.003-1.733.568-2.646 1.47-2.646.905 0 1.47.913 1.474 2.646 0 1.747-.565 2.656-1.474 2.656zm7.87-.391c.004.846.54 1.566 1.538 1.566.994 0 1.541-.72 1.537-1.566v-.383c.004-.852-.529-1.566-1.537-1.566-.984 0-1.534.721-1.538 1.566zm-3.697-4.162c.004.846.54 1.559 1.542 1.559.99 0 1.537-.706 1.534-1.559v-.383c.003-.852-.529-1.566-1.534-1.566-.981 0-1.538.714-1.542 1.566zm.32 5.526h.891l5-7.273h-.891zm4.304-1.747c.004-.377.163-.757.611-.757.469 0 .607.38.603.757v.383c.004.377-.149.75-.603.75-.455 0-.607-.377-.611-.75zm-3.69-4.162c.004-.373.157-.756.608-.756.468 0 .603.379.6.756v.383c.003.377-.146.75-.6.75-.455 0-.604-.373-.608-.75z" fill="#5eaa53"/></svg>

<svg width="316" height="271" viewBox="0 0 316 271" fill="none" xmlns="http://www.w3.org/2000/svg">
<path d="M50.983 116.114C52.4602 116.114 53.4545 114.991 53.4545 113.301C53.4545 111.597 52.4602 110.474 50.983 110.474C49.5057 110.474 48.5114 111.597 48.5114 113.301C48.5114 114.991 49.5057 116.114 50.983 116.114ZM50.983 115.361C49.8608 115.361 49.3494 114.395 49.3494 113.301C49.3494 112.207 49.8608 111.227 50.983 111.227C52.1051 111.227 52.6165 112.207 52.6165 113.301C52.6165 114.395 52.1051 115.361 50.983 115.361ZM55.5719 112.719C55.5719 111.767 56.1614 111.227 56.964 111.227C57.7417 111.227 58.214 111.735 58.214 112.591V116H59.052V112.534C59.052 111.142 58.3098 110.474 57.2054 110.474C56.3816 110.474 55.8702 110.844 55.6145 111.398H55.5435V110.545H54.7338V116H55.5719V112.719ZM63.7085 112.491H60.5266V113.273H63.7085V112.491ZM67.2427 116.114C68.2939 116.114 68.649 115.46 68.8336 115.162H68.9331V116H69.7427V108.727H68.9047V111.412H68.8336C68.649 111.128 68.3223 110.474 67.2569 110.474C65.8791 110.474 64.9274 111.568 64.9274 113.287C64.9274 115.02 65.8791 116.114 67.2427 116.114ZM67.3564 115.361C66.3052 115.361 65.7654 114.438 65.7654 113.273C65.7654 112.122 66.291 111.227 67.3564 111.227C68.3791 111.227 68.9189 112.051 68.9189 113.273C68.9189 114.509 68.3649 115.361 67.3564 115.361ZM73.6809 116.114C74.7889 116.114 75.5985 115.56 75.8542 114.736L75.0446 114.509C74.8315 115.077 74.3379 115.361 73.6809 115.361C72.6973 115.361 72.019 114.725 71.9799 113.557H75.9395V113.202C75.9395 111.17 74.7321 110.474 73.5957 110.474C72.1184 110.474 71.1383 111.639 71.1383 113.315C71.1383 114.991 72.1042 116.114 73.6809 116.114ZM71.9799 112.832C72.0368 111.984 72.6369 111.227 73.5957 111.227C74.5048 111.227 75.0872 111.909 75.0872 112.832H71.9799ZM77.2143 116H78.0524V112.591C78.0524 111.792 78.6348 111.227 79.2882 111.227C79.9238 111.227 80.3677 111.643 80.3677 112.264V116H81.22V112.449C81.22 111.746 81.6603 111.227 82.4274 111.227C83.024 111.227 83.5353 111.543 83.5353 112.349V116H84.3734V112.349C84.3734 111.067 83.6845 110.474 82.7115 110.474C81.9302 110.474 81.3585 110.833 81.0779 111.398H81.0211C80.7512 110.815 80.2754 110.474 79.5581 110.474C78.8478 110.474 78.3223 110.815 78.095 111.398H78.024V110.545H77.2143V116ZM87.5108 116.128C88.4625 116.128 88.9597 115.616 89.1301 115.261H89.1728V116H90.0108V112.406C90.0108 110.673 88.6898 110.474 87.9938 110.474C87.1699 110.474 86.2324 110.759 85.8063 111.753L86.6017 112.037C86.7864 111.639 87.2232 111.213 88.0222 111.213C88.7928 111.213 89.1728 111.621 89.1728 112.321V112.349C89.1728 112.754 88.7608 112.719 87.7665 112.847C86.7544 112.978 85.65 113.202 85.65 114.452C85.65 115.517 86.4739 116.128 87.5108 116.128ZM87.6387 115.375C86.9711 115.375 86.4881 115.077 86.4881 114.494C86.4881 113.855 87.0705 113.656 87.7239 113.571C88.079 113.528 89.0307 113.429 89.1728 113.259V114.026C89.1728 114.707 88.633 115.375 87.6387 115.375ZM92.3786 112.719C92.3786 111.767 92.968 111.227 93.7706 111.227C94.5483 111.227 95.0206 111.735 95.0206 112.591V116H95.8587V112.534C95.8587 111.142 95.1165 110.474 94.0121 110.474C93.1882 110.474 92.6768 110.844 92.4212 111.398H92.3501V110.545H91.5405V116H92.3786V112.719ZM99.4498 116.114C100.501 116.114 100.856 115.46 101.041 115.162H101.14V116H101.95V108.727H101.112V111.412H101.041C100.856 111.128 100.529 110.474 99.464 110.474C98.0861 110.474 97.1344 111.568 97.1344 113.287C97.1344 115.02 98.0861 116.114 99.4498 116.114ZM99.5634 115.361C98.5123 115.361 97.9725 114.438 97.9725 113.273C97.9725 112.122 98.498 111.227 99.5634 111.227C100.586 111.227 101.126 112.051 101.126 113.273C101.126 114.509 100.572 115.361 99.5634 115.361Z" fill="black"/>
<path d="M221.858 110.545H222.71C222.671 109.448 221.659 108.628 220.253 108.628C218.861 108.628 217.767 109.438 217.767 110.659C217.767 111.639 218.477 112.222 219.614 112.548L220.509 112.804C221.276 113.017 221.957 113.287 221.957 114.011C221.957 114.807 221.19 115.332 220.182 115.332C219.315 115.332 218.548 114.949 218.477 114.125H217.568C217.653 115.318 218.619 116.128 220.182 116.128C221.858 116.128 222.81 115.205 222.81 114.026C222.81 112.662 221.517 112.222 220.764 112.023L220.026 111.824C219.486 111.682 218.619 111.398 218.619 110.616C218.619 109.92 219.259 109.409 220.224 109.409C221.105 109.409 221.773 109.828 221.858 110.545ZM224.144 118.045H224.982V115.162H225.053C225.238 115.46 225.593 116.114 226.644 116.114C228.008 116.114 228.959 115.02 228.959 113.287C228.959 111.568 228.008 110.474 226.63 110.474C225.564 110.474 225.238 111.128 225.053 111.412H224.954V110.545H224.144V118.045ZM224.968 113.273C224.968 112.051 225.508 111.227 226.53 111.227C227.596 111.227 228.121 112.122 228.121 113.273C228.121 114.438 227.581 115.361 226.53 115.361C225.522 115.361 224.968 114.509 224.968 113.273ZM232.454 116.114C233.931 116.114 234.925 114.991 234.925 113.301C234.925 111.597 233.931 110.474 232.454 110.474C230.976 110.474 229.982 111.597 229.982 113.301C229.982 114.991 230.976 116.114 232.454 116.114ZM232.454 115.361C231.331 115.361 230.82 114.395 230.82 113.301C230.82 112.207 231.331 111.227 232.454 111.227C233.576 111.227 234.087 112.207 234.087 113.301C234.087 114.395 233.576 115.361 232.454 115.361ZM238.577 110.545H237.412V109.239H236.574V110.545H235.75V111.256H236.574V114.665C236.574 115.616 237.341 116.071 238.051 116.071C238.364 116.071 238.562 116.014 238.676 115.972L238.506 115.219C238.435 115.233 238.321 115.261 238.136 115.261C237.767 115.261 237.412 115.148 237.412 114.438V111.256H238.577V110.545Z" fill="black"/>
<rect x="122" y="59" width="31" height="79" fill="#0278D5"/>
<rect x="161" y="112" width="31" height="26" fill="#00ADE4"/>
<rect x="65" y="77" width="11" height="11" rx="1" fill="#0278D5"/>
<rect x="79" y="83" width="11" height="11" rx="1" fill="#0278D5"/>
<rect x="62" y="92" width="11" height="11" rx="1" fill="#0278D5"/>
<rect x="217.5" y="77.5" width="10" height="10" rx="0.5" stroke="#00ADE4" stroke-dasharray="2 1"/>
<rect x="231.5" y="83.5" width="10" height="10" rx="0.5" stroke="#00ADE4" stroke-dasharray="2 1"/>
<rect x="214.5" y="92.5" width="10" height="10" rx="0.5" stroke="#00ADE4" stroke-dasharray="2 1"/>
<path d="M137.807 149.181C137.583 147.565 136.34 146.628 134.728 146.628C132.828 146.628 131.397 148.013 131.397 150.364C131.397 152.711 132.81 154.099 134.728 154.099C136.457 154.099 137.604 152.981 137.807 151.592L136.479 151.585C136.312 152.438 135.616 152.917 134.746 152.917C133.567 152.917 132.722 152.033 132.722 150.364C132.722 148.723 133.56 147.81 134.749 147.81C135.633 147.81 136.326 148.311 136.479 149.181H137.807ZM151.512 150.364C151.512 148.013 150.077 146.628 148.17 146.628C146.26 146.628 144.829 148.013 144.829 150.364C144.829 152.711 146.26 154.099 148.17 154.099C150.077 154.099 151.512 152.714 151.512 150.364ZM150.187 150.364C150.187 152.018 149.356 152.917 148.17 152.917C146.988 152.917 146.153 152.018 146.153 150.364C146.153 148.709 146.988 147.81 148.17 147.81C149.356 147.81 150.187 148.709 150.187 150.364ZM162.71 148.727H163.978C163.953 147.498 162.905 146.628 161.357 146.628C159.83 146.628 158.683 147.487 158.686 148.773C158.686 149.817 159.429 150.417 160.625 150.726L161.453 150.939C162.237 151.138 162.756 151.383 162.759 151.947C162.756 152.569 162.166 152.984 161.307 152.984C160.483 152.984 159.844 152.615 159.791 151.852H158.495C158.548 153.297 159.624 154.11 161.318 154.11C163.061 154.11 164.073 153.24 164.077 151.958C164.073 150.697 163.033 150.122 161.939 149.863L161.257 149.692C160.661 149.55 160.014 149.298 160.022 148.691C160.025 148.144 160.515 147.743 161.339 147.743C162.124 147.743 162.642 148.109 162.71 148.727ZM170.932 147.832H173.18V154H174.487V147.832H176.734V146.727H170.932V147.832Z" fill="#6B6D85"/>
<path d="M122.923 55.1818H123.901L123.906 54.1246C125.886 53.9815 127.022 52.892 127.027 51.3455C127.022 49.7067 125.669 48.9588 124.248 48.6218L123.943 48.5433L123.961 45.9073C124.7 46.0366 125.176 46.4798 125.249 47.1445H126.897C126.87 45.6765 125.716 44.6055 123.971 44.4393L123.975 43.3636H122.997L122.992 44.4393C121.261 44.6147 120.014 45.6765 120.019 47.2045C120.019 48.5618 120.984 49.342 122.54 49.7436L122.955 49.8498L122.937 52.6428C122.11 52.5135 121.515 52.0426 121.455 51.207H119.77C119.834 52.9382 121.025 53.9677 122.927 54.1246L122.923 55.1818ZM123.915 52.6428L123.934 50.1083C124.774 50.353 125.309 50.6761 125.314 51.3317C125.309 52.0149 124.76 52.5043 123.915 52.6428ZM122.964 48.294C122.327 48.0909 121.745 47.7539 121.755 47.0984C121.759 46.5028 122.207 46.0412 122.983 45.9073L122.964 48.294ZM128.461 54H134.943V52.5689H130.825V52.5043L132.455 50.8469C134.292 49.0835 134.8 48.2248 134.8 47.1584C134.8 45.5749 133.512 44.4162 131.61 44.4162C129.735 44.4162 128.406 45.5795 128.406 47.3754H130.036C130.036 46.4105 130.645 45.8058 131.587 45.8058C132.487 45.8058 133.156 46.3551 133.156 47.2461C133.156 48.0355 132.676 48.5987 131.744 49.5451L128.461 52.7628V54ZM136.162 52.2457H140.672V54H142.306V52.2457H143.516V50.8377H142.306V44.5455H140.173L136.162 50.8839V52.2457ZM140.69 50.8377H137.916V50.7638L140.616 46.4844H140.69V50.8377ZM148.485 54.18C150.766 54.1847 152.128 52.3842 152.128 49.282C152.128 46.1982 150.757 44.4162 148.485 44.4162C146.214 44.4162 144.847 46.1935 144.843 49.282C144.843 52.3796 146.205 54.18 148.485 54.18ZM148.485 52.7351C147.308 52.7351 146.569 51.5533 146.574 49.282C146.579 47.0291 147.313 45.8427 148.485 45.8427C149.662 45.8427 150.396 47.0291 150.401 49.282C150.401 51.5533 149.667 52.7351 148.485 52.7351Z" fill="#0278D5"/>
<path d="M221.747 129.727H223.015C222.99 128.498 221.942 127.628 220.394 127.628C218.867 127.628 217.72 128.487 217.723 129.773C217.723 130.817 218.466 131.417 219.662 131.726L220.49 131.939C221.275 132.138 221.793 132.383 221.797 132.947C221.793 133.569 221.204 133.984 220.344 133.984C219.52 133.984 218.881 133.615 218.828 132.852H217.532C217.585 134.297 218.661 135.11 220.355 135.11C222.098 135.11 223.111 134.24 223.114 132.958C223.111 131.697 222.07 131.122 220.976 130.863L220.294 130.692C219.698 130.55 219.052 130.298 219.059 129.691C219.062 129.144 219.552 128.743 220.376 128.743C221.161 128.743 221.679 129.109 221.747 129.727ZM225.801 135.11C226.657 135.11 227.169 134.709 227.403 134.251H227.446V135H228.681V131.349C228.681 129.908 227.506 129.474 226.465 129.474C225.318 129.474 224.438 129.986 224.154 130.98L225.354 131.151C225.482 130.778 225.844 130.458 226.473 130.458C227.069 130.458 227.396 130.763 227.396 131.3V131.321C227.396 131.69 227.009 131.708 226.046 131.811C224.988 131.925 223.976 132.241 223.976 133.469C223.976 134.542 224.761 135.11 225.801 135.11ZM226.135 134.165C225.599 134.165 225.215 133.92 225.215 133.448C225.215 132.955 225.645 132.749 226.22 132.667C226.558 132.621 227.233 132.536 227.399 132.401V133.043C227.399 133.651 226.909 134.165 226.135 134.165ZM234.651 129.545H233.284L232.027 133.597H231.97L230.716 129.545H229.345L231.288 135H232.708L234.651 129.545ZM237.77 135.107C239.041 135.107 239.915 134.485 240.142 133.537L238.941 133.402C238.767 133.864 238.341 134.105 237.787 134.105C236.956 134.105 236.406 133.558 236.395 132.624H240.195V132.23C240.195 130.316 239.044 129.474 237.702 129.474C236.14 129.474 235.12 130.621 235.12 132.305C235.12 134.016 236.125 135.107 237.77 135.107ZM236.399 131.758C236.438 131.062 236.953 130.476 237.72 130.476C238.459 130.476 238.956 131.016 238.963 131.758H236.399ZM244.015 135H245.382L248.472 128.853V127.727H243.518V128.828H247.108V128.878L244.015 135ZM252.15 135.138C253.904 135.142 254.952 133.757 254.952 131.371C254.952 128.999 253.897 127.628 252.15 127.628C250.403 127.628 249.352 128.995 249.348 131.371C249.348 133.754 250.396 135.138 252.15 135.138ZM252.15 134.027C251.244 134.027 250.676 133.118 250.68 131.371C250.683 129.638 251.248 128.725 252.15 128.725C253.055 128.725 253.62 129.638 253.624 131.371C253.624 133.118 253.059 134.027 252.15 134.027ZM260.02 133.636C260.024 134.482 260.56 135.202 261.558 135.202C262.552 135.202 263.099 134.482 263.095 133.636V133.253C263.099 132.401 262.566 131.687 261.558 131.687C260.574 131.687 260.024 132.408 260.02 133.253V133.636ZM256.323 129.474C256.327 130.32 256.863 131.033 257.865 131.033C258.855 131.033 259.402 130.327 259.399 129.474V129.091C259.402 128.239 258.87 127.525 257.865 127.525C256.884 127.525 256.327 128.239 256.323 129.091V129.474ZM256.643 135H257.534L262.534 127.727H261.643L256.643 135ZM260.947 133.253C260.951 132.876 261.11 132.496 261.558 132.496C262.027 132.496 262.165 132.876 262.161 133.253V133.636C262.165 134.013 262.012 134.386 261.558 134.386C261.103 134.386 260.951 134.009 260.947 133.636V133.253ZM257.257 129.091C257.261 128.718 257.414 128.335 257.865 128.335C258.333 128.335 258.468 128.714 258.465 129.091V129.474C258.468 129.851 258.319 130.224 257.865 130.224C257.41 130.224 257.261 129.851 257.257 129.474V129.091Z" fill="#5EAA53"/>
</svg>
